svg/editor/text_area_line.svg

<svg xmlns="http://www.w3.org/2000/svg" width="24" height="24" viewBox="0 0 24 24"><g fill="none" fill-rule="evenodd"><path d="M24,0 L24,24 L0,24 L0,0 L24,0 Z M12.5935,23.2578 L12.5819,23.2595 L12.5109,23.295 L12.4919,23.2987 L12.4767,23.295 L12.4057,23.2595 C12.3958,23.2564 12.387,23.259 12.3821,23.2649 L12.378,23.2758 L12.3609,23.7031 L12.3659,23.7235 L12.3769,23.7357 L12.4805,23.8097 L12.4953,23.8136 L12.5071,23.8097 L12.6107,23.7357 L12.6233,23.7197 L12.6267,23.7031 L12.6096,23.2758 C12.6076,23.2657 12.601,23.2593 12.5935,23.2578 Z M12.8584,23.1453 L12.8445,23.1473 L12.6598,23.2397 L12.6499,23.2499 L12.6472,23.2611 L12.6651,23.6906 L12.6699,23.7034 L12.6784,23.7105 L12.8793,23.8032 C12.8914,23.8069 12.9022,23.803 12.9078,23.7952 L12.9118,23.7812 L12.8777,23.1665 C12.8753,23.1546 12.8674,23.147 12.8584,23.1453 Z M12.143,23.1473 C12.1332,23.1424 12.1222,23.1453 12.1156,23.1526 L12.1099,23.1665 L12.0758,23.7812 C12.0751,23.7927 12.0828,23.8019 12.0926,23.8046 L12.1083,23.8032 L12.3092,23.7105 L12.3186,23.7024 L12.3225,23.6906 L12.3404,23.2611 L12.3372,23.2485 L12.3278,23.2397 L12.143,23.1473 Z"/><path fill="#09244B" d="M7,3 C7.51283143,3 7.93550653,3.38604429 7.9932722,3.88337975 L8,4 L16,4 C16,3.48716857 16.386027,3.06449347 16.8833761,3.0067278 L17,3 L20,3 C20.51285,3 20.9355092,3.38604429 20.9932725,3.88337975 L21,4 L21,7 C21,7.51283143 20.613973,7.93550653 20.1166239,7.9932722 L20,8 L20,16 C20.51285,16 20.9355092,16.386027 20.9932725,16.8833761 L21,17 L21,20 C21,20.51285 20.613973,20.9355092 20.1166239,20.9932725 L20,21 L17,21 C16.48715,21 16.0644908,20.613973 16.0067275,20.1166239 L16,20 L8,20 C8,20.51285 7.61395571,20.9355092 7.11662025,20.9932725 L7,21 L4,21 C3.48716857,21 3.06449347,20.613973 3.0067278,20.1166239 L3,20 L3,17 C3,16.48715 3.38604429,16.0644908 3.88337975,16.0067275 L4,16 L4,8 C3.48716857,8 3.06449347,7.61395571 3.0067278,7.11662025 L3,7 L3,4 C3,3.48716857 3.38604429,3.06449347 3.88337975,3.0067278 L4,3 L7,3 Z M6,18 L5,18 L5,19 L6,19 L6,18 Z M19,18 L18,18 L18,19 L19,19 L19,18 Z M16,6 L8,6 L8,7 C8,7.55228 7.55228,8 7,8 L6,8 L6,16 L7,16 C7.55228,16 8,16.4477 8,17 L8,18 L16,18 L16,17 C16,16.4477 16.4477,16 17,16 L18,16 L18,8 L17,8 C16.4477,8 16,7.55228 16,7 L16,6 Z M12,7 C12.7225,7 13.3669,7.45416 13.6099,8.13453 L15.9417,14.6637 C16.1275,15.1838 15.8564,15.756 15.3363,15.9417 C14.8162,16.1275 14.244,15.8564 14.0583,15.3363 L13.581,14 L10.419,14 L9.94174,15.3363 C9.75599,15.8564 9.18377,16.1275 8.66366,15.9417 C8.14355,15.756 7.8725,15.1838 8.05826,14.6637 L10.3901,8.13453 C10.6331,7.45416 11.2775,7 12,7 Z M12,9.57321 L11.1333,12 L12.8667,12 L12,9.57321 Z M6,5 L5,5 L5,6 L6,6 L6,5 Z M19,5 L18,5 L18,6 L19,6 L19,5 Z"/></g></svg>

<svg xmlns="http://www.w3.org/2000/svg" width="24" height="24"><g fill="none" fill-rule="evenodd"><path d="M24 0v24H0V0zM12.594 23.258l-.012.002-.071.035-.02.004-.014-.004-.071-.036c-.01-.003-.019 0-.024.006l-.004.01-.017.428.005.02.01.013.104.074.015.004.012-.004.104-.074.012-.016.004-.017-.017-.427c-.002-.01-.009-.017-.016-.018m.264-.113-.014.002-.184.093-.01.01-.003.011.018.43.005.012.008.008.201.092c.012.004.023 0 .029-.008l.004-.014-.034-.614c-.003-.012-.01-.02-.02-.022m-.715.002a.023.023 0 0 0-.027.006l-.006.014-.034.614c0 .012.007.02.017.024l.015-.002.201-.093.01-.008.003-.011.018-.43-.003-.012-.01-.01z"/><path fill="#09244B" d="M7 3a1 1 0 0 1 .993.883L8 4h8a1 1 0 0 1 .883-.993L17 3h3a1 1 0 0 1 .993.883L21 4v3a1 1 0 0 1-.883.993L20 8v8a1 1 0 0 1 .993.883L21 17v3a1 1 0 0 1-.883.993L20 21h-3a1 1 0 0 1-.993-.883L16 20H8a1 1 0 0 1-.883.993L7 21H4a1 1 0 0 1-.993-.883L3 20v-3a1 1 0 0 1 .883-.993L4 16V8a1 1 0 0 1-.993-.883L3 7V4a1 1 0 0 1 .883-.993L4 3zM6 18H5v1h1zm13 0h-1v1h1zM16 6H8v1a1 1 0 0 1-1 1H6v8h1a1 1 0 0 1 1 1v1h8v-1a1 1 0 0 1 1-1h1V8h-1a1 1 0 0 1-1-1zm-4 1a1.71 1.71 0 0 1 1.61 1.135l2.332 6.529a1 1 0 1 1-1.884.672L13.581 14h-3.162l-.477 1.336a1 1 0 0 1-1.884-.672l2.332-6.53A1.71 1.71 0 0 1 12 7m0 2.573L11.133 12h1.734zM6 5H5v1h1zm13 0h-1v1h1z"/></g></svg>
